X:0
T:The Laird of Cockpen
G:song
M:6/8
L:1/8
Q:3/8=84
K:EMin
B,|E>FE G2G|F>DD D2F   |\
   E>FE e2e|d>BB B2c   |
   dGB  dcB|A>BG F2G/A/|\
   B>cB BAB|G>EE E2   |]


2.4. The Mixolydian/Dorian Hexatonic Mode
==== ====================================

The MIXOLYDIAN/DORIAN HEXATONIC mode has the third omitted, giving an
interval sequence TmT STT.  In A it's ABde^fga.  So on the pipes, one
form of it is in the A-mode in the C-gap hexatonic pitch set; this occurs
often.  The other is the E-mode in the G-gap pitch set, and if there are
any real examples of it I can't find them.  In sol-fa it's either the
so-mode with ti omitted or the re-mode with fa omitted.

